packages/ui/public/icons/sidebar-payments-icon.svg

<svg
  width="24"
  height="16"
  viewBox="0 0 24 16"
  fill="none"
  xmlns="http://www.w3.org/2000/svg"
>
    <path
    d="M2.14535 0C0.96563 0 0 0.961418 0 2.14114V8.57067C0 9.75039 0.96563 10.7152 2.14535 10.7152H6.0017C6.58642 10.7282 6.58642 9.84473 6.0017 9.8581H2.14535C1.4256 9.8581 0.857924 9.29043 0.857924 8.57067V2.14163C0.857924 1.42187 1.4256 0.857631 2.14535 0.857631L21.8586 0.857439C22.5784 0.857439 23.1426 1.42183 23.1426 2.14144V6.42885C23.1296 7.01357 24.0131 7.01357 23.9997 6.42885L23.9999 2.14163C23.9999 0.961912 23.0385 0.000494384 21.8588 0.000494384L2.14535 0ZM12 2.14114C10.1116 2.14114 8.57395 3.68286 8.57395 5.57141C8.57395 7.45982 10.1115 9.00076 12 9.00076C13.8884 9.00076 15.4294 7.45982 15.4294 5.57141C15.4294 3.68281 13.8884 2.14114 12 2.14114ZM12.4561 3.24607H12.4577C12.6989 3.24453 12.8962 3.44084 12.8912 3.68209L12.888 4.29894C12.8882 4.56833 12.6427 4.77094 12.3783 4.72005C12.1317 4.67241 11.895 4.82566 11.8535 4.95787C11.812 5.09027 11.8783 5.20315 12.0846 5.24257C12.7129 5.36253 13.1702 6.00003 12.9735 6.62795C12.8432 7.04389 12.3725 7.0657 11.9732 7.17206L11.9667 7.51683C12.0044 8.13251 11.0556 8.11855 11.1121 7.50382L11.1186 7.02245C11.1234 6.75631 11.366 6.55829 11.6275 6.60804C11.8741 6.65568 12.1118 6.50319 12.1531 6.37118C12.1946 6.23878 12.1284 6.1259 11.9221 6.08668C11.2936 5.96691 10.8366 5.32847 11.0333 4.70051C11.1632 4.28591 11.6313 4.26314 12.0293 4.1564L12.0326 3.67846C12.031 3.4418 12.2202 3.24741 12.4569 3.24569L12.4561 3.24607ZM23.5671 7.70663C23.5526 7.70701 23.5375 7.70816 23.5227 7.70988C23.3033 7.73475 23.1388 7.92263 23.1428 8.14342V9.85849C23.1428 10.5782 22.5784 11.1425 21.8588 11.1425L12.4302 11.1429C11.8581 11.1429 11.8581 12.0008 12.4302 12.0008H21.8588C23.0385 12.0008 23.9999 11.0384 23.9999 9.85872V8.14366C24.0047 7.9024 23.8084 7.70514 23.5671 7.70763L23.5671 7.70663ZM3.4302 11.1421C2.85871 11.1425 2.85871 12.0006 3.4302 12H10.2854C10.8578 12.0004 10.8578 11.1425 10.2854 11.1421H3.4302ZM1.67404 12.8572C1.11651 12.8968 1.15614 13.7279 1.71499 13.7143H9.42828C10.013 13.7273 10.013 12.8438 9.42828 12.8572H1.71499C1.70198 12.8564 1.68763 12.8564 1.67404 12.8572ZM10.6241 12.8572C10.0661 12.8989 10.11 13.7306 10.6692 13.7143H12.4631C13.0478 13.7273 13.0478 12.8438 12.4631 12.8572H10.6692C10.6547 12.8564 10.6388 12.8564 10.6241 12.8572ZM1.67404 14.5714C1.10525 14.6015 1.1458 15.4537 1.71499 15.4294H12.4621C13.0368 15.4326 13.0368 14.5686 12.4621 14.5714H1.71499C1.70198 14.5707 1.68763 14.5707 1.67404 14.5714Z"
  />
  </svg>

<svg width="24" height="16" fill="none" xmlns="http://www.w3.org/2000/svg"><path d="M2.145 0C.965 0 0 .961 0 2.141v6.43c0 1.18.966 2.144 2.145 2.144h3.857c.584.013.584-.87 0-.857H2.145c-.72 0-1.287-.568-1.287-1.287V2.14c0-.72.568-1.283 1.287-1.283H21.86c.72 0 1.284.564 1.284 1.283V6.43c-.013.585.87.585.857 0V2.142C24 .962 23.038 0 21.859 0H2.145ZM12 2.141a3.434 3.434 0 0 0-3.426 3.43A3.434 3.434 0 0 0 12 9.001c1.888 0 3.43-1.541 3.43-3.43A3.437 3.437 0 0 0 12 2.141Zm.456 1.105h.002a.43.43 0 0 1 .433.436l-.003.617c0 .27-.245.472-.51.421-.246-.048-.483.106-.524.238-.042.132.024.245.23.285.629.12 1.086.757.89 1.385-.13.416-.601.438-1 .544l-.007.345c.037.616-.911.602-.855-.013l.007-.482a.429.429 0 0 1 .508-.414c.247.048.485-.105.526-.237.042-.132-.025-.245-.23-.284-.63-.12-1.086-.759-.89-1.386.13-.415.598-.438.996-.545l.004-.478a.429.429 0 0 1 .424-.432Zm11.111 4.46a.428.428 0 0 0-.424.437v1.715a1.27 1.27 0 0 1-1.284 1.284H12.43c-.572 0-.572.859 0 .859h9.429c1.18 0 2.14-.963 2.14-2.142V8.144a.428.428 0 0 0-.432-.436v-.001ZM3.43 11.143c-.571 0-.571.859 0 .858h6.855c.573 0 .573-.857 0-.858H3.43Zm-1.756 1.715c-.557.04-.518.87.041.857h7.713c.585.013.585-.87 0-.857H1.715a.35.35 0 0 0-.041 0Zm8.95 0c-.558.042-.514.874.045.857h1.794c.585.013.585-.87 0-.857h-1.839Zm-8.95 1.714c-.569.03-.528.883.041.858h10.747c.575.004.575-.86 0-.858H1.715a.4.4 0 0 0-.041 0Z"/></svg>
